src/assets/technologies/PostgreSqlIcon.svg

<svg width="23" height="24" viewBox="0 0 23 24" fill="none" xmlns="http://www.w3.org/2000/svg">
<g clip-path="url(#clip0_5033_765)">
<path d="M16.8127 17.5074C16.961 16.2276 16.9167 16.0398 17.8364 16.247L18.0699 16.2684C18.7773 16.3018 19.7026 16.1505 20.2459 15.8888C21.4161 15.3262 22.1098 14.3864 20.9561 14.6333C18.3241 15.1958 18.1431 14.2726 18.1431 14.2726C20.9225 9.99895 22.0845 4.57416 21.0816 3.24617C18.3466 -0.375867 13.612 1.33689 13.5327 1.3814L13.5074 1.38651C12.9873 1.27438 12.4055 1.20774 11.7517 1.1968C10.5606 1.17661 9.65687 1.52052 8.97135 2.05926C8.97135 2.05926 0.525212 -1.54697 0.918078 6.59435C1.00163 8.32632 3.31352 19.6996 6.07085 16.2643C7.0786 15.0083 8.05255 13.9462 8.05255 13.9462C8.53624 14.2791 9.11521 14.4489 9.72258 14.3879L9.76952 14.3465C9.75496 14.5024 9.7613 14.6549 9.78852 14.8354C9.07813 15.6582 9.287 15.8027 7.86668 16.1055C6.42993 16.4124 7.27409 16.9587 7.8249 17.1015C8.49329 17.2749 10.0387 17.5203 11.0833 16.0048L11.0418 16.1777C11.3206 16.4088 11.3015 17.8382 11.341 18.8595C11.3804 19.8808 11.4466 20.8337 11.6475 21.396C11.8484 21.9579 12.0854 23.4053 13.9519 22.9908C15.5116 22.644 16.704 22.1454 16.8127 17.5074Z" fill="black"/>
<path d="M13.3441 24C12.5185 24 11.9811 23.6692 11.6544 23.3496C11.1616 22.8678 10.9661 22.2469 10.8494 21.876L10.799 21.721C10.5638 21.0631 10.4843 20.116 10.4371 18.8965C10.4301 18.7059 10.4243 18.5152 10.4195 18.3244C10.4155 18.1783 10.4106 17.9949 10.4035 17.8025C10.106 17.9494 9.79036 18.0528 9.46548 18.1099C8.88346 18.2131 8.25779 18.1795 7.60536 18.0105C7.14514 17.8913 6.66685 17.6442 6.39437 17.2623C5.59996 17.9835 4.84216 17.8854 4.42934 17.7429C3.70111 17.4912 3.04939 16.7841 2.43662 15.5807C2.00034 14.7238 1.57814 13.6069 1.18175 12.2617C0.491773 9.91875 0.0533782 7.45103 0.0144203 6.64111C-0.108086 4.10504 0.550444 2.29159 1.97171 1.25134C4.21414 -0.390158 7.61122 0.574941 8.84966 1.01322C9.68163 0.493462 10.6605 0.24027 11.7668 0.258755C12.361 0.268727 12.9266 0.322965 13.4521 0.419767C14.0001 0.241243 15.0829 -0.0151118 16.3223 0.000697569C18.6058 0.0289112 20.4981 0.951203 21.7943 2.66785C22.7192 3.89271 22.262 6.46453 21.9069 7.88883C21.4077 9.89175 20.5326 12.0226 19.4577 13.8774C19.7497 13.8796 20.1724 13.8431 20.7736 13.7147C21.9597 13.4608 22.3064 14.1199 22.4005 14.4149C22.7776 15.5987 21.1383 16.493 20.6269 16.7389C19.9717 17.0544 18.9036 17.2463 18.0287 17.2047L17.9905 17.202L17.7607 17.1811L17.7379 17.3795L17.7161 17.5739C17.6575 19.9244 17.3333 21.4129 16.6666 22.3967C15.9679 23.4277 14.9966 23.7169 14.1411 23.9068C13.8794 23.9673 13.6123 23.9985 13.3441 24ZM11.607 15.445C12.14 15.8869 12.1867 16.7185 12.2282 18.2726C12.2334 18.4665 12.2383 18.6501 12.2449 18.8216C12.2651 19.3406 12.3122 20.5562 12.4958 21.0699C12.5218 21.1424 12.545 21.2163 12.5694 21.2942C12.7741 21.9441 12.8769 22.2697 13.7619 22.0732C14.5051 21.9083 14.887 21.7602 15.186 21.319C15.6206 20.6774 15.8637 19.3876 15.9083 17.4841L16.8123 17.507L15.9144 17.3953L15.9407 17.1631C16.0268 16.3974 16.0888 15.8438 16.5828 15.478C16.979 15.1845 17.4307 15.2129 17.7905 15.2801C17.3953 14.9709 17.2859 14.6076 17.2568 14.4587L17.1815 14.0739L17.3932 13.748C18.6136 11.8713 19.6201 9.56486 20.1547 7.4199C20.7039 5.21583 20.5364 4.04521 20.369 3.82388C18.1522 0.887966 14.3073 2.09993 13.906 2.23784L13.8379 2.27578L13.4976 2.3417L13.3233 2.30424C12.8429 2.20087 12.3092 2.14371 11.7368 2.13399C10.8377 2.11842 10.1125 2.33853 9.51782 2.80625L9.10524 3.13046L8.62624 2.92591C7.60348 2.49249 4.59855 1.62103 3.01301 2.78484C2.13294 3.43084 1.73209 4.6968 1.82127 6.54747C1.85061 7.15844 2.25145 9.47122 2.91186 11.7147C3.82503 14.8148 4.65488 15.8443 5.00128 15.9642C5.06159 15.9854 5.21859 15.8589 5.37466 15.6648C6.38992 14.3994 7.35542 13.3445 7.39602 13.3L7.9196 12.7292L8.55255 13.165C8.80766 13.3409 9.08904 13.4403 9.37818 13.4591L10.8879 12.1248L10.6692 14.4378C10.6643 14.4898 10.6619 14.5604 10.6816 14.6917L10.7473 15.1302L10.4627 15.4605L10.4298 15.4987L11.2592 15.8956L11.607 15.445Z" fill="black"/>
<path d="M21.1681 14.3182C18.5082 14.8678 18.3253 13.9655 18.3253 13.9655C21.1337 9.7902 22.3077 4.48993 21.2945 3.19273C18.5305 -0.346011 13.7461 1.32759 13.6661 1.37108L13.6403 1.3756C13.1147 1.26652 12.5268 1.20141 11.8659 1.19072C10.6623 1.171 9.74924 1.50677 9.05651 2.03311C9.05651 2.03311 0.521216 -1.48995 0.918217 6.46414C1.00265 8.15628 3.33888 19.2679 6.12524 15.9117C7.1436 14.6846 8.12756 13.6469 8.12756 13.6469C8.61634 13.9722 9.20141 14.1381 9.81493 14.0784L9.8626 14.038C9.8479 14.1903 9.85454 14.3393 9.88158 14.5156C9.16394 15.3195 9.37453 15.4607 7.93973 15.7565C6.48762 16.0564 7.34067 16.5901 7.89776 16.7296C8.57294 16.899 10.1349 17.1388 11.1902 15.6582L11.148 15.8271C11.4293 16.0529 11.6268 17.2954 11.5936 18.4218C11.5604 19.5481 11.5384 20.3213 11.7601 20.9254C11.9818 21.5294 12.2026 22.8884 14.089 22.4835C15.6651 22.1449 16.4819 21.2678 16.5957 19.805C16.6764 18.7649 16.8587 18.9186 16.8704 17.9886L17.0169 17.5482C17.1855 16.1382 17.0437 15.6833 18.0149 15.8951L18.2509 15.9157C18.9656 15.9485 19.901 15.8005 20.45 15.5448C21.6325 14.9949 22.3338 14.077 21.1681 14.3182Z" fill="#336791"/>
<path d="M13.4385 23.4223C11.8823 23.4225 11.3894 22.1454 11.1876 21.6232C10.8926 20.858 10.8288 17.8878 10.8945 15.4519C10.8989 15.3706 10.9337 15.2943 10.9915 15.2391C11.0494 15.184 11.1257 15.1544 11.2043 15.1567C11.2828 15.159 11.3574 15.1929 11.4122 15.2514C11.467 15.3098 11.4976 15.388 11.4976 15.4694C11.4218 18.2789 11.5295 20.8247 11.7478 21.3909C12.0888 22.2743 12.6058 23.047 14.0682 22.7225C15.4563 22.4139 15.9762 21.8683 16.2076 20.4776C16.3854 19.4101 16.7365 16.3735 16.7797 15.7742C16.7857 15.6915 16.8231 15.6147 16.8837 15.5606C16.9443 15.5065 17.0231 15.4796 17.1029 15.4857C17.1826 15.4919 17.2568 15.5307 17.309 15.5935C17.3612 15.6563 17.3872 15.738 17.3812 15.8207C17.3362 16.4443 16.9865 19.4753 16.8018 20.5839C16.5284 22.2268 15.8217 22.9721 14.1944 23.3337C13.9461 23.3906 13.6928 23.4202 13.4385 23.4223ZM5.00127 17.1849C4.86526 17.1849 4.73017 17.1618 4.60137 17.1165C3.59057 16.767 2.62789 15.0611 1.73983 12.0456C1.06393 9.75012 0.635632 7.35439 0.598082 6.57585C0.486606 4.26768 1.06041 2.63446 2.30308 1.72189C4.76166 -0.0835339 8.89777 1.63579 9.07261 1.70973C9.14599 1.74155 9.20426 1.80213 9.23474 1.87827C9.26522 1.95441 9.26544 2.03994 9.23536 2.11625C9.20527 2.19256 9.14732 2.25346 9.07412 2.28569C9.00091 2.31793 8.91838 2.31888 8.8445 2.28835V2.2886C8.8046 2.27157 4.8384 0.624968 2.65065 2.2329C1.58799 3.01388 1.10008 4.46445 1.20029 6.54496C1.23197 7.20068 1.63211 9.53924 2.31669 11.8635C3.10946 14.5552 4.01183 16.2541 4.79217 16.5236C4.91444 16.5661 5.28712 16.6948 5.82033 16.0308C6.82291 14.7806 7.74405 13.783 7.75321 13.773C7.80929 13.7167 7.88427 13.6851 7.96237 13.6848C8.04046 13.6846 8.11561 13.7158 8.17201 13.7718C8.2284 13.8277 8.26166 13.9042 8.26479 13.9851C8.26792 14.066 8.24067 14.1449 8.18878 14.2054C8.17963 14.2152 7.27257 15.198 6.28407 16.4304C5.81587 17.0137 5.36691 17.1849 5.00127 17.1849ZM18.1249 14.551C18.0702 14.5511 18.0164 14.5357 17.9695 14.5065C17.9225 14.4773 17.8841 14.4354 17.8584 14.3853C17.8327 14.3352 17.8207 14.2788 17.8236 14.2221C17.8265 14.1654 17.8443 14.1106 17.875 14.0636C20.6844 9.74306 21.6706 4.52282 20.8259 3.40449C19.7628 1.99673 18.2615 1.26123 16.3641 1.21916C14.959 1.18754 13.8421 1.55942 13.6598 1.62436L13.614 1.64358C13.4305 1.70341 13.2897 1.59907 13.2367 1.47721C13.2064 1.4074 13.2019 1.32854 13.2238 1.25548C13.2458 1.18243 13.2927 1.1202 13.3559 1.08052L13.4371 1.04598L13.4331 1.0472L13.4373 1.04574C13.7473 0.928264 14.8811 0.575594 16.2857 0.592376C18.3854 0.615239 20.1198 1.45459 21.3012 3.01899C21.8602 3.75935 21.8614 5.46506 21.3047 7.69855C20.7372 9.97558 19.6694 12.4231 18.3754 14.4131C18.3478 14.4557 18.3105 14.4906 18.2668 14.5146C18.2232 14.5387 18.1744 14.5512 18.1249 14.551ZM18.2683 16.5511C17.7886 16.5511 17.3587 16.4812 17.1012 16.3212C16.8365 16.157 16.7861 15.9335 16.7795 15.8151C16.7072 14.5007 17.407 14.2718 17.764 14.1675C17.7142 14.0897 17.6434 13.998 17.5704 13.9034C17.3622 13.6339 17.0773 13.2647 16.8576 12.7125C16.8234 12.6264 16.7154 12.4258 16.5906 12.1938C15.914 10.9365 14.5063 8.32022 15.4106 6.98032C15.8292 6.36035 16.6624 6.1164 17.8903 6.25261C17.5291 5.11214 15.8088 1.54434 11.7276 1.47502C10.5 1.45362 9.49317 1.84496 8.73678 2.6364C7.04304 4.40924 7.10453 7.61683 7.10524 7.64869C7.10627 7.68972 7.09949 7.73055 7.0853 7.76887C7.0711 7.80718 7.04976 7.84222 7.0225 7.87199C6.99524 7.90176 6.96259 7.92567 6.92641 7.94236C6.89023 7.95905 6.85123 7.96819 6.81164 7.96926C6.77206 7.97033 6.73265 7.96331 6.69568 7.94859C6.65871 7.93388 6.6249 7.91177 6.59618 7.88351C6.56746 7.85526 6.54439 7.82142 6.52828 7.78392C6.51218 7.74643 6.50336 7.70601 6.50233 7.66499C6.49857 7.5227 6.43521 4.15677 8.30824 2.19642C9.18479 1.27899 10.3385 0.826111 11.7375 0.849703C14.3491 0.894213 16.0297 2.26987 16.9799 3.41641C18.0153 4.66559 18.5232 6.04368 18.565 6.50337C18.5962 6.84533 18.3594 6.91392 18.3115 6.92389L18.2029 6.92657C16.9977 6.72664 16.2247 6.86528 15.905 7.33883C15.2172 8.35744 16.5488 10.8322 17.1174 11.8892C17.2627 12.1587 17.3674 12.3536 17.4153 12.4739C17.6021 12.9434 17.8457 13.2588 18.0414 13.5123C18.2134 13.7353 18.3627 13.9284 18.4162 14.1556C18.4408 14.2006 18.7924 14.7391 20.8776 14.293C21.4002 14.1814 21.7135 14.2769 21.8093 14.5771C21.9977 15.1679 20.9405 15.8567 20.3552 16.1385C19.8299 16.3913 18.9928 16.5511 18.2683 16.5511ZM17.381 15.7635C17.4469 15.8328 17.7778 15.952 18.4634 15.9216C19.0726 15.8944 19.7154 15.7569 20.1012 15.5716C20.5945 15.3342 20.9236 15.0689 21.0942 14.8877L20.9994 14.9057C19.6661 15.191 18.7232 15.153 18.1968 14.7926C18.1614 14.7683 18.1273 14.7421 18.0947 14.714C18.0376 14.7374 17.9848 14.7527 17.9473 14.7636C17.6485 14.8505 17.3397 14.9402 17.381 15.7635ZM8.7687 17.5096C8.43755 17.5096 8.08904 17.4631 7.73302 17.3705C7.36433 17.2749 6.74241 16.9871 6.75203 16.5146C6.76259 15.9841 7.50678 15.825 7.78723 15.7652C8.7992 15.5492 8.86515 15.4626 9.18151 15.0465C9.27374 14.9251 9.3885 14.7741 9.5448 14.5929C9.77714 14.3236 10.0311 14.1869 10.2996 14.1869C10.4864 14.1869 10.6399 14.2529 10.741 14.2962C11.0639 14.4348 11.3333 14.7699 11.4441 15.1713C11.5441 15.5332 11.4965 15.8815 11.3099 16.1519C10.6978 17.0404 9.81915 17.5096 8.7687 17.5096ZM7.40352 16.5416C7.49458 16.6143 7.6767 16.7116 7.87923 16.7644C8.18761 16.8441 8.4866 16.8847 8.7687 16.8847C9.62812 16.8847 10.3179 16.5158 10.8192 15.7888C10.9236 15.637 10.8924 15.4446 10.8644 15.3432C10.8058 15.1311 10.6603 14.9383 10.5103 14.8736C10.4289 14.8385 10.3615 14.8118 10.2996 14.8118C10.2662 14.8118 10.1651 14.8118 9.99446 15.0095C9.85037 15.1764 9.74687 15.3126 9.65511 15.433C9.2613 15.9513 9.08083 16.1271 7.9088 16.3774C7.62295 16.4387 7.47628 16.5005 7.40352 16.5416ZM9.7227 15.0998C9.6507 15.0996 9.58112 15.0729 9.52651 15.0242C9.4719 14.9756 9.43585 14.9084 9.42488 14.8346C9.41716 14.7827 9.41214 14.7305 9.40986 14.678C8.64149 14.6629 7.90035 14.3214 7.33781 13.7129C6.62648 12.9436 6.30261 11.8778 6.44952 10.7889C6.60911 9.60637 6.5495 8.56247 6.51735 8.0016C6.50936 7.88624 6.50443 7.77066 6.50256 7.65502C6.50303 7.55627 6.50491 7.29383 7.35095 6.84947C7.65182 6.69138 8.2552 6.41556 8.9142 6.34479C10.0064 6.22804 10.7262 6.73199 10.9417 7.76422C11.5232 10.5515 10.9877 11.7844 10.5967 12.6846C10.5237 12.8519 10.4549 13.0105 10.4 13.1637L10.3514 13.2992C10.1449 13.8732 9.9663 14.3691 10.0212 14.7398C10.0333 14.8217 10.0135 14.9053 9.96621 14.9721C9.91891 15.039 9.84796 15.0836 9.76893 15.0963L9.7227 15.0998ZM7.10758 7.74136L7.11955 7.96464C7.15288 8.54715 7.21483 9.63143 7.0468 10.8757C6.9257 11.7737 7.19043 12.6505 7.77315 13.2807C8.23361 13.7788 8.84004 14.0537 9.46313 14.0537H9.47604C9.54598 13.7489 9.66168 13.4274 9.7863 13.0808L9.83464 12.9463C9.89683 12.7731 9.96959 12.6055 10.0466 12.4282C10.423 11.5614 10.8914 10.4825 10.3519 7.89629C10.2449 7.38431 9.98578 7.08782 9.55982 6.99005C8.68491 6.78964 7.38123 7.47163 7.10758 7.74136ZM8.92781 7.6088C8.91279 7.71923 9.12331 8.01425 9.39742 8.05365C9.6713 8.0933 9.90575 7.86273 9.92054 7.7523C9.93532 7.64188 9.72504 7.52003 9.45069 7.48038C9.17681 7.44074 8.94236 7.49814 8.92781 7.6088ZM9.46055 8.16262L9.38357 8.15702C9.21343 8.13246 9.0414 8.02131 8.92382 7.85956C8.88252 7.80289 8.81493 7.69247 8.82831 7.59421C8.84755 7.44998 9.01699 7.36388 9.28195 7.36388C9.34156 7.36388 9.40258 7.36834 9.46501 7.37726C9.60958 7.39817 9.74405 7.44147 9.84332 7.49887C10.0153 7.59859 10.028 7.7095 10.0203 7.76714C9.99892 7.92596 9.75438 8.16262 9.46055 8.16262ZM9.02779 7.62729C9.03647 7.69539 9.19911 7.92037 9.41127 7.95077L9.46032 7.95442C9.65604 7.95442 9.80249 7.79462 9.81962 7.74233C9.80155 7.70682 9.67576 7.61805 9.43685 7.584C9.38544 7.57655 9.33362 7.57265 9.28172 7.57232C9.1287 7.57208 9.0468 7.60783 9.02779 7.62729ZM17.2702 7.38334C17.285 7.494 17.075 7.78903 16.8006 7.82843C16.5265 7.86783 16.292 7.6375 16.277 7.52684C16.2625 7.41642 16.4727 7.29456 16.7469 7.25516C17.021 7.21527 17.2552 7.27316 17.2702 7.38334ZM16.7375 7.88486C16.4735 7.88486 16.246 7.67204 16.2273 7.53413C16.2057 7.3685 16.4688 7.24251 16.7401 7.2036C16.8 7.19484 16.8586 7.19046 16.9158 7.19046C17.1498 7.19046 17.3047 7.26173 17.3202 7.37628C17.3303 7.45071 17.2754 7.56527 17.1806 7.66839C17.1181 7.73649 16.9867 7.85446 16.8079 7.87999L16.7375 7.88486ZM16.9156 7.29456C16.863 7.29456 16.8091 7.29853 16.7537 7.30648C16.481 7.34564 16.3188 7.45922 16.3265 7.52003C16.3357 7.58667 16.5096 7.78076 16.7372 7.78076L16.7933 7.77663C16.9421 7.75498 17.0538 7.65453 17.1071 7.5964C17.1907 7.50519 17.224 7.41958 17.22 7.39015C17.2151 7.35196 17.1146 7.29456 16.9156 7.29456ZM17.6652 13.7285C17.6106 13.7284 17.557 13.713 17.5101 13.6839C17.4633 13.6548 17.425 13.613 17.3993 13.5631C17.3736 13.5131 17.3614 13.4569 17.3642 13.4003C17.3669 13.3438 17.3844 13.2891 17.4148 13.242C18.0569 12.248 17.9393 11.234 17.8257 10.2538C17.7771 9.83597 17.7271 9.40426 17.7403 8.98957C17.7534 8.5632 17.8055 8.2115 17.8562 7.871C17.9161 7.46798 17.9726 7.08685 17.9492 6.63495C17.9474 6.55373 17.9763 6.475 18.0296 6.41543C18.0829 6.35585 18.1564 6.3201 18.2347 6.31574C18.313 6.31138 18.3898 6.33875 18.449 6.39206C18.5081 6.44537 18.5449 6.52044 18.5516 6.60138C18.5784 7.11798 18.5143 7.54897 18.4523 7.96609C18.4045 8.28788 18.3549 8.6206 18.343 9.00951C18.3315 9.37653 18.3768 9.76641 18.4246 10.1789C18.5457 11.2216 18.6826 12.4034 17.9161 13.5896C17.8579 13.6796 17.7624 13.7285 17.6652 13.7285Z" fill="white"/>
</g>
<defs>
<clipPath id="clip0_5033_765">
<rect width="22.4563" height="24" fill="white"/>
</clipPath>
</defs>
</svg>

<svg xmlns="http://www.w3.org/2000/svg" width="23" height="24" fill="none" viewBox="0 0 23 24"><g clip-path="url(#a)"><path fill="#000" d="M16.813 17.507c.148-1.28.104-1.467 1.023-1.26l.234.021c.707.034 1.633-.117 2.176-.38 1.17-.562 1.864-1.502.71-1.255-2.632.563-2.813-.36-2.813-.36 2.78-4.274 3.941-9.699 2.939-11.027-2.735-3.622-7.47-1.91-7.55-1.865l-.025.006a9 9 0 0 0-1.755-.19c-1.191-.02-2.095.324-2.78.862 0 0-8.447-3.606-8.054 4.535.084 1.732 2.396 13.106 5.153 9.67 1.008-1.256 1.982-2.318 1.982-2.318a2.5 2.5 0 0 0 1.67.442l.047-.041a2 2 0 0 0 .019.488c-.71.823-.502.968-1.922 1.27-1.437.307-.593.854-.042.997.668.173 2.214.418 3.258-1.097l-.041.173c.279.23.26 1.66.299 2.682.04 1.02.106 1.974.307 2.536.2.562.437 2.01 2.304 1.595 1.56-.347 2.752-.846 2.86-5.484"/><path fill="#000" d="M13.344 24c-.825 0-1.363-.33-1.69-.65-.492-.482-.688-1.103-.805-1.474l-.05-.155c-.235-.658-.315-1.605-.362-2.825q-.01-.284-.018-.572c-.004-.146-.008-.33-.016-.522-.297.147-.613.25-.938.308-.582.103-1.207.07-1.86-.1-.46-.119-.938-.366-1.21-.748-.795.721-1.553.623-1.966.48-.728-.25-1.38-.958-1.992-2.161-.437-.857-.859-1.974-1.255-3.32C.492 9.92.053 7.452.014 6.642c-.122-2.536.536-4.35 1.958-5.39C4.214-.39 7.612.575 8.85 1.013 9.682.493 10.66.24 11.767.26c.594.01 1.16.064 1.685.16a9.4 9.4 0 0 1 2.87-.418c2.284.028 4.176.95 5.472 2.667.925 1.225.468 3.797.113 5.22-.5 2.004-1.374 4.135-2.45 5.99.293.002.715-.035 1.317-.163 1.186-.254 1.532.405 1.627.7.377 1.184-1.263 2.078-1.774 2.324-.655.315-1.723.507-2.598.466l-.038-.003-.23-.02-.023.198-.022.194c-.059 2.35-.383 3.839-1.05 4.823-.698 1.03-1.67 1.32-2.525 1.51q-.394.09-.797.093m-1.737-8.555c.533.442.58 1.273.621 2.828q.007.291.017.549c.02.519.067 1.734.25 2.248q.04.107.074.224c.205.65.308.976 1.193.78.743-.166 1.125-.314 1.424-.755.435-.642.678-1.931.722-3.835l.904.023-.898-.112.027-.232c.086-.766.148-1.32.642-1.685.396-.293.848-.265 1.208-.198-.396-.31-.505-.672-.534-.821l-.076-.385.212-.326c1.22-1.877 2.227-4.183 2.762-6.328.549-2.204.381-3.375.214-3.596C18.152.888 14.307 2.1 13.906 2.238l-.068.038-.34.066-.175-.038a8.3 8.3 0 0 0-1.586-.17c-.9-.016-1.624.205-2.22.672l-.412.324-.479-.204C7.603 2.492 4.6 1.62 3.013 2.785c-.88.646-1.28 1.912-1.192 3.762.03.611.43 2.924 1.09 5.168.914 3.1 1.744 4.13 2.09 4.25.06.02.218-.106.374-.3 1.015-1.266 1.98-2.32 2.021-2.365l.524-.57.633.435c.255.176.536.275.825.294l1.51-1.334-.219 2.313a1 1 0 0 0 .013.254l.065.438-.284.33-.033.039.83.397z"/><path fill="#336791" d="M21.168 14.318c-2.66.55-2.843-.352-2.843-.352 2.809-4.176 3.983-9.476 2.97-10.773-2.765-3.539-7.549-1.865-7.629-1.822l-.026.005a9.5 9.5 0 0 0-1.774-.185c-1.204-.02-2.117.316-2.81.842 0 0-8.535-3.523-8.138 4.431.085 1.692 2.42 12.804 5.207 9.448a52 52 0 0 1 2.003-2.265 2.58 2.58 0 0 0 1.687.431l.048-.04c-.015.152-.008.301.019.478-.718.803-.507.945-1.942 1.24-1.452.3-.6.834-.042.974.675.169 2.237.409 3.292-1.072l-.042.17c.281.225.479 1.467.446 2.594-.034 1.126-.056 1.9.166 2.503s.443 1.963 2.329 1.558c1.576-.338 2.393-1.215 2.507-2.678.08-1.04.263-.886.274-1.816l.147-.44c.169-1.41.027-1.866.998-1.654l.236.02c.715.034 1.65-.114 2.199-.37 1.183-.55 1.884-1.468.718-1.227"/><path fill="#fff" d="M13.439 23.422c-1.557 0-2.05-1.277-2.251-1.799-.295-.765-.36-3.735-.293-6.171a.32.32 0 0 1 .097-.213.296.296 0 0 1 .42.012.32.32 0 0 1 .086.218c-.076 2.81.032 5.356.25 5.922.34.883.858 1.656 2.32 1.332 1.388-.31 1.908-.855 2.14-2.245.177-1.068.529-4.105.572-4.704a.32.32 0 0 1 .104-.213.295.295 0 0 1 .425.033.32.32 0 0 1 .072.227c-.045.623-.395 3.654-.58 4.763-.273 1.643-.98 2.388-2.607 2.75a3.5 3.5 0 0 1-.756.088M5 17.185q-.204 0-.4-.069c-1.01-.349-1.973-2.055-2.861-5.07C1.064 9.75.636 7.354.598 6.576c-.111-2.308.462-3.942 1.705-4.854 2.459-1.806 6.595-.086 6.77-.012a.3.3 0 0 1 .162.168c.03.076.03.162 0 .238a.3.3 0 0 1-.16.17.3.3 0 0 1-.23.002c-.04-.016-4.007-1.663-6.194-.055-1.063.78-1.55 2.231-1.45 4.312.031.656.431 2.994 1.116 5.319.792 2.691 1.695 4.39 2.475 4.66.122.042.495.17 1.028-.493 1.003-1.25 1.924-2.248 1.933-2.258a.296.296 0 0 1 .419-.001.32.32 0 0 1 .017.434c-.01.01-.916.992-1.905 2.224-.468.584-.917.755-1.283.755m13.124-2.634a.3.3 0 0 1-.155-.044.3.3 0 0 1-.112-.122.32.32 0 0 1 .017-.321c2.81-4.32 3.796-9.541 2.951-10.66-1.063-1.407-2.564-2.143-4.462-2.185a8.1 8.1 0 0 0-2.704.405l-.046.02a.3.3 0 0 1-.377-.167.32.32 0 0 1-.013-.222.3.3 0 0 1 .132-.174l.081-.035-.004.001.004-.001c.31-.118 1.444-.47 2.849-.454 2.1.023 3.834.863 5.015 2.427.56.74.56 2.446.004 4.68-.568 2.277-1.636 4.724-2.93 6.714a.3.3 0 0 1-.25.138m.143 2c-.48 0-.91-.07-1.167-.23a.63.63 0 0 1-.322-.506c-.072-1.314.628-1.543.985-1.647-.05-.078-.12-.17-.194-.265-.208-.27-.493-.638-.712-1.19-.035-.087-.143-.287-.267-.52-.677-1.256-2.085-3.873-1.18-5.213.418-.62 1.251-.864 2.48-.727-.362-1.14-2.082-4.709-6.163-4.778-1.228-.021-2.235.37-2.991 1.161C7.043 4.41 7.105 7.616 7.105 7.65a.32.32 0 0 1-.083.223.3.3 0 0 1-.21.097.3.3 0 0 1-.216-.085.31.31 0 0 1-.094-.219c-.003-.142-.067-3.508 1.806-5.469.877-.917 2.03-1.37 3.43-1.346 2.611.044 4.292 1.42 5.242 2.566 1.035 1.25 1.543 2.628 1.585 3.087.031.342-.206.41-.254.42l-.108.004c-1.205-.2-1.978-.062-2.298.412-.688 1.018.644 3.493 1.212 4.55.146.27.25.465.298.585.187.47.43.785.626 1.038.172.223.322.416.375.644.025.045.376.583 2.462.137q.785-.167.931.284c.189.59-.869 1.28-1.454 1.562-.525.252-1.362.412-2.087.412m-.887-.787c.066.069.397.188 1.082.158.61-.028 1.252-.165 1.638-.35.494-.238.823-.503.993-.684l-.095.018c-1.333.285-2.276.247-2.802-.113a1 1 0 0 1-.102-.079c-.057.023-.11.039-.148.05-.299.087-.607.176-.566 1M8.769 17.51c-.331 0-.68-.047-1.036-.14-.369-.095-.99-.383-.981-.855.01-.53.755-.69 1.035-.75 1.012-.216 1.078-.302 1.395-.719.092-.12.207-.272.363-.453q.35-.406.755-.406c.186 0 .34.066.441.11.323.138.592.473.703.874.1.362.052.71-.134.98-.612.89-1.49 1.359-2.541 1.359m-1.365-.968c.09.072.273.17.475.222q.465.12.89.12c.86 0 1.549-.368 2.05-1.095.105-.152.073-.344.045-.446-.058-.212-.204-.405-.354-.47a.6.6 0 0 0-.21-.061c-.034 0-.135 0-.306.197-.144.167-.247.304-.339.424-.394.518-.574.694-1.746.944-.286.062-.433.123-.505.165M9.723 15.1a.3.3 0 0 1-.196-.076.32.32 0 0 1-.102-.19 2 2 0 0 1-.015-.156c-.769-.015-1.51-.357-2.072-.965-.712-.77-1.035-1.835-.888-2.924.16-1.183.1-2.227.067-2.787a7 7 0 0 1-.014-.347c0-.099.002-.361.848-.806.3-.158.904-.433 1.563-.504 1.092-.117 1.812.387 2.028 1.42.581 2.787.046 4.02-.345 4.92a8 8 0 0 0-.197.479l-.049.135c-.206.574-.385 1.07-.33 1.44a.32.32 0 0 1-.055.233.3.3 0 0 1-.197.124zM7.108 7.74l.012.224c.033.582.095 1.666-.073 2.91-.121.899.143 1.775.726 2.406.46.498 1.067.773 1.69.773h.013c.07-.305.186-.627.31-.973l.049-.135c.062-.173.135-.34.212-.518.376-.867.844-1.946.305-4.532-.107-.512-.366-.808-.792-.906-.875-.2-2.179.482-2.452.751m1.82-.132c-.015.11.195.405.47.445.273.04.508-.191.523-.302.014-.11-.196-.232-.47-.272s-.509.018-.523.129m.533.554-.077-.006a.72.72 0 0 1-.46-.297c-.041-.057-.11-.168-.096-.266.02-.144.189-.23.454-.23q.09 0 .183.013c.145.021.279.064.378.122.172.1.185.21.177.268-.021.159-.266.396-.56.396m-.433-.536c.008.068.171.293.383.324l.05.003c.195 0 .341-.16.359-.212-.018-.035-.144-.124-.383-.158a1 1 0 0 0-.155-.012c-.153 0-.235.036-.254.055m8.242-.244c.015.111-.195.406-.47.445-.274.04-.508-.19-.523-.301s.196-.232.47-.272.508.018.523.128m-.532.502c-.264 0-.492-.213-.51-.35-.022-.167.24-.292.512-.331q.09-.014.176-.014c.234 0 .389.072.404.186.01.075-.045.19-.14.292a.65.65 0 0 1-.372.212zm.178-.59q-.08 0-.162.011c-.273.04-.435.153-.428.214.01.067.184.26.411.26l.056-.003a.56.56 0 0 0 .314-.18c.084-.092.117-.177.113-.207-.005-.038-.105-.095-.304-.095m.75 6.434a.3.3 0 0 1-.156-.045.3.3 0 0 1-.11-.12.32.32 0 0 1 .015-.322c.642-.994.524-2.008.41-2.988-.048-.418-.098-.85-.085-1.264.013-.427.066-.779.116-1.119.06-.403.117-.784.093-1.236a.32.32 0 0 1 .08-.22.295.295 0 0 1 .42-.023c.06.053.096.128.103.21.026.516-.038.947-.1 1.364-.048.322-.097.655-.109 1.044-.012.367.034.756.082 1.169.12 1.043.258 2.224-.509 3.41a.3.3 0 0 1-.25.14"/></g><defs><clipPath id="a"><path fill="#fff" d="M0 0h22.456v24H0z"/></clipPath></defs></svg>
